X: 20408
T: John Donald Of Coullie
R: polka
M: 2/4
K: Amajor
G|A/A/A/A/ GG|FF E2|c/A/G/A/ dB|F2 F2|
B/B/B/B/ AA|GG F2|E/E/E/E/ dd|cE EG|
A/A/A/A/ GG|FF E2|c/A/G/A/ dB|F2 F2|
B/B/B/B/ FF|c/c/c/c/ EE|F/F/F/F/ GG|cB A||
E|c/c/c/c/ Ac|fe c2|a/e/c/A/ GA|df F2|
B/B/B/B/ ^AB|gg g2|f/f/f/f/ d/c/B/G/|Aa ef/g/|
aA c/A/B/c/|FA E2|c/A/G/A/ BA|f2 fa|
g/g/g/g/ ff|e/e/e/e/ dd|F/F/F/F/ cB|AE F||

